X: 48
T:Viscount Reidhaven
M:C
L:1/8
C:William Marshall
S:ABAB
R:Reel
K:F
"F"c2 AB c2 AB|"F"cagf "C"ec c2|"Bb"d2 Bd "F"c2 Ac|"Gm"Gd"C7"cB "F"AF F2
|!
"F"c2 AB c2 AB|"F"cagf "C"ec c2|"Bb"d2 Bd "F"c2 Ac|"Gm"Bd"C7"cB "F"AF F2
||!
"F"af f2 cfAf|"Bb"defg "F"af f2|"Gm"bg g2 "G"dg=Bg|"C"efga "C7"bg g2|!
"F"af f2 cfAf|"Bb"defg "F"afcA|"Gm"BdBd "F"AcAc|"Gm"Gd"C7"cB "F"AF F2:||
% <A name="D1X049">
